X:18
T:Mollroe
B:Terry "Cuz" Teahan "Sliabh Luachra on Parade" 1980
Z:Patrick Cavanagh
M:9/8
L:1/8
R:Slip Jig
K:G
A | BGG AGE DGG | BAG GFG A2A | BGG AGE DGG | BdB cAF G2 :| 
G | Bdd ege dBG | Bdd ege d3 | Bdd ege dBG | B2B AGE G2 :|| 

